X:465
T:Geese in the Bog, The
R:jig
Z:Transcribed by Dave Marshall
M:6/8
K:C
|: cEE GEE|cEE GAB|cEE GED|EAA A2B|
cEE GEE|cEE GAB|cBA BAG|EAA A2B:|
|:cde ~g3|eaa ged|cde ged|eaa age|
cde ~g3|eaa ged|cBA BAG|EAA A2B:|
